X:1
T:Rapahanock Jig
T:Rapahanock Jig
T:James Buckley
C:James Buckley
L:1/8
M:2/4
K:A
V:1 treble 
V:1
 c/>d/ | e/>e/f/>e/ e/>e/c/>e/ | A/>e/B/>e/ c/A/ z | A,/C/z/E/ Ac | (3B/(c/B/ (3A/)G/(F/ E) c/>d/ | %5
 e/>e/f/>e/ e/>e/c/>e/ | A/>e/B/>e/ c/A/ z | A,/C/ z/ E/ Ac | (3E/G/B/ (3e/B/G/ AA, :: %9
 (3E/G/B/e (3E/A/c/e | (3B/c/B/G e z/ c/A/e/ | E/>G/d/>e/ E/>A/c/>e/ | (3E/G/B/ (3e/B/G/ AA, :| %13

